assets/images/gm-logo.svg

<svg height="33" viewBox="0 0 30 33" width="30" xmlns="http://www.w3.org/2000/svg"><g fill="none" fill-rule="evenodd" transform=""><path d="m5.3805631 27.377231c-.3374893.6702659-.5770692 1.1541384-1.48989648 2.0794689-.33191097.3365275-.81030133.4983954-1.27551528.2190939-.45655791-.2738193-.50464701-.6635334-.45184518-1.2241561.13955457-.9782285.37471027-1.631567.7230677-2.3730047.8130905-1.730342 2.01868422-3.1844602 3.44414131-4.4562245.17677553-.1577322.33806637-.3327766.50676293-.4994534.05280183-.0521286.63871942-.5297495 1.0922958-.90244-.02365983.0829056-.04616553.1660997-.07001773.2490053-.70392823 2.4451384-1.33091391 4.6277102-2.47899307 6.9077106m3.18599901-14.2231206c-.28035945.4434777-.61159716.8635841-.9718807 1.2447383-.29661356.3138294-.67613273.5932271-1.15134922.3832701-.45742351-.2019742-.45290313-.6539156-.48166042-1.0709442-.00442419-.0637662-.00067324-.1281094-.00067324-.1921641.12724375-1.6800408.60861564-3.2657307 1.30860057-4.78678894.71258428-1.54866136 1.56222249-3.01470565 2.7727213-4.23732291.2215946-.22380667.4867579-.42404968.7667326-.5664896.6277551-.31950397 1.0680589-.03741331 1.0128526.65939774-.035105.44222736-.1345533.88743624-.265548 1.31273623-.7730804 2.50938539-1.57251355 5.01136508-2.98979549 7.25356738m21.14631589-12.85440861c-.3832701-.3644192-.8466567-.37509498-1.29427-.14715265-.3675931.18716278-.732397.40135163-1.049208.66324486-1.4209367 1.17404728-2.5014026 2.6509597-3.5896589 4.11758106-.417221.56225775-.8124173 1.14086579-1.2174236 1.71206812-.0425108-.02048596-.0848292-.04087574-.1272438-.0613617.2919008-.70123524.5743762-1.40670233.8787802-2.10264778.2561225-.5854367.5566794-1.15192629.8008759-1.74197954.136573-.3299874.0903113-.66257161-.2178437-.91167315-.3185422-.25766139-.6735359-.32719823-1.0254519-.11695269-.3273906.19562646-.6439131.42279936-.9257152.6794028-1.4787398 1.34716803-2.6701953 2.93353125-3.7747058 4.59020072-.1320526.19812709-.268241.39356119-.4025057.59014943.0655935-.55215904.2013971-1.060557.3732676-1.55664415.4288586-1.23867902.9001317-2.46341221 1.2889802-3.71411351.072326-.23246271-.0819438-.69113654-.2746849-.80693509-.1963959-.11801065-.6484335-.0370286-.84733.12753229-.3215237.26593272-.6000558.63968121-.7690409 1.02400929-.5593724 1.27243757-1.1603899 2.53997005-1.5640498 3.86453621-.7324932 2.40349319-1.6505141 4.13325809-3.3402689 6.59484289l-1.3365884 1.9480895c.9042674-3.8361637 1.6659026-7.70704766 2.4974593-11.56090809.34653-1.60607975-1.0607494-2.56035984-2.4145537-2.23277689-.8610834.20832198-1.58934474.67199707-2.24614566 1.24800831-1.39102529 1.22011663-2.46754787 2.68568002-3.29554599 4.33273168-1.11518621 2.2181578-1.94029898 4.53076259-2.13188596 7.02745249-.07251836.9455278.06847888 1.8559507.71239192 2.6197979.62612008.7426881 1.41506985.9342751 2.2742297.4778133.40404461-.2145735.80029879-.4897394 1.11355118-.8196306.62496594-.6583398 1.19020522-1.3733285 1.77977758-2.0645612-.01231081.0605923-.02356366.1363807-.04347255.2098608-.32488996 1.1978995-.64295126 2.3977225-.9674565 3.5958144l-.79212365.5471577c-.41904841.3666313-1.54327538 1.2140574-1.97059512 1.5712633-1.65070643 1.3800609-3.24764924 2.8116734-4.40650036 4.6577178-1.00390804 1.5994434-1.65061025 3.2852549-1.32139228 5.2248806.33008358 1.9441462 1.97530785 2.8312939 3.75787459 1.9940626.35797526-.1681194.72672247-.3743255.99823353-.6529538.55590999-.570529 1.162025-1.1390384 1.54423716-1.8219998.73153138-1.307254 1.47056466-2.6443234 1.93885631-4.0577582.69633017-2.1015898 1.36486483-4.2172216 1.9623238-6.3503579l-.0024045.0122146 3.8765585-5.2609475c-.0343356.3021919-.0216401.326525-.0294305.5482158-.0218324.6225615-.1097393 1.442673-.0878107 2.0642727.0159656.4542496.2705493.8061656.730762.9006126.435591.0895419.8016453-.1136826 1.0038118-.4998381.167831-.3203696.3072894-.6719971.375095-1.0259328.5052241-2.6374948 1.3878514-5.1247592 2.8943867-7.36503798.3895217-.57899276.8275172-1.12547728 1.2431032-1.68686943.0660745.17667935.0354898.29565178.0042319.41443186-.40693 1.54587219-.8610834 3.08145335-1.2026122 4.64165605-.1931258.8817617-.228808 1.8024756-.2786283 2.7087628-.0196203.3534549.1469603.7108531.5586992.8026071.4173172.0931005.782602-.0689598.9980412-.4207796.205629-.335662.3691319-.7093143.4833916-1.0868137.8908025-2.9435338 2.2799042-5.6292138 4.1365282-8.07617954.1828347-.24102257.3848089-.46742605.5779348-.700562-.1040649.41827899-.2815136.77567717-.4356873 1.14288554-.8116478 1.9331818-1.2114606 3.911375-.6269857 5.9912285.2448697.8709898.6938296 1.6247384 1.3909291 2.1984413.2728576.2246723.6221768.3991395.9647636.4860846.4983954.1265705.9307164-.1520577 1.1606785-.6373729.208899-.4411694.140901-.8699318-.3100785-1.1804912-.973612-.6704582-1.3999699-1.6174288-1.4180514-2.7440602-.0100987-.63208312.0734801-1.28224775.2244799-1.89740351.4995496-2.03426508 1.5611645-3.80836814 2.6650979-5.55967697.2548722-.40442932.4897394-.82665162.6840193-1.26281975.1844698-.4142395.2091876-.85723629-.156001-1.20443958" fill="#000"/><path d="m12 23c6-4 10.6666667-5.6666667 14-5" stroke="#000" stroke-width="1.5"/></g></svg>

<?xml version="1.0" encoding="UTF-8"?>
<svg width="30px" height="33px" viewBox="0 0 30 33" version="1.1" xmlns="http://www.w3.org/2000/svg" xmlns:xlink="http://www.w3.org/1999/xlink">
    <defs></defs>
    <g id="UI" stroke="none" stroke-width="1" fill="none" fill-rule="evenodd">
        <g id="Tablet-Intro" transform="translate(-40.000000, -40.000000)">
            <g id="gm-logo" transform="translate(40.000000, 40.000000)">
                <g id="gm">
                    <path d="M5.3805631,27.377231 C5.0430738,28.0474969 4.8034939,28.5313694 3.89066662,29.4566999 C3.55875565,29.7932274 3.08036529,29.9550953 2.61515134,29.6757938 C2.15859343,29.4019745 2.11050433,29.0122604 2.16330616,28.4516377 C2.30286073,27.4734092 2.53801643,26.8200707 2.88637386,26.078633 C3.69946436,24.348291 4.90505808,22.8941728 6.33051517,21.6224085 C6.5072907,21.4646763 6.66858154,21.2896319 6.8372781,21.1229551 C6.89007993,21.0708265 7.47599752,20.5932056 7.9295739,20.2205151 C7.90591407,20.3034207 7.88340837,20.3866148 7.85955617,20.4695204 C7.15562794,22.9146588 6.52864226,25.0972306 5.3805631,27.377231 M8.56656211,13.1541104 C8.28620266,13.5975881 7.95496495,14.0176945 7.59468141,14.3988487 C7.29806785,14.7126781 6.91854868,14.9920758 6.44333219,14.7821188 C5.98590868,14.5801446 5.99042906,14.1282032 5.96167177,13.7111746 C5.95724758,13.6474084 5.96099853,13.5830652 5.96099853,13.5190105 C6.08824228,11.8389697 6.56961417,10.2532798 7.2695991,8.73222156 C7.98218338,7.1835602 8.83182159,5.71751591 10.0423204,4.49489865 C10.263915,4.27109198 10.5290783,4.07084897 10.809053,3.92840905 C11.4368081,3.60890508 11.8771119,3.89099574 11.8219056,4.58780679 C11.7868006,5.03003415 11.6873523,5.47524303 11.5563576,5.90054302 C10.7832772,8.40992841 9.98384405,10.9119081 8.56656211,13.1541104 M29.712878,0.299701786 C29.3296079,-0.0647174103 28.8662213,-0.0753931903 28.418608,0.152549141 C28.0510149,0.339711916 27.686211,0.553900766 27.3694,0.815794001 C25.9484633,1.98984128 24.8679974,3.4667537 23.7797411,4.93337506 C23.3625201,5.49563281 22.9673238,6.07424085 22.5623175,6.64544318 C22.5198067,6.62495722 22.4774883,6.60456744 22.4350737,6.58408148 C22.7269745,5.88284624 23.0094499,5.17737915 23.3138539,4.4814337 C23.5699764,3.895997 23.8705333,3.32950741 24.1147298,2.73945416 C24.2513028,2.40946676 24.2050411,2.07688255 23.8968861,1.82778101 C23.5783439,1.57011962 23.2233502,1.50058278 22.8714342,1.71082832 C22.5440436,1.90645478 22.2275211,2.13362768 21.945719,2.39023112 C20.4669792,3.73739915 19.2755237,5.32376237 18.1710132,6.98043184 C18.0389606,7.17855893 17.9027722,7.37399303 17.7685075,7.57058127 C17.834101,7.01842223 17.9699046,6.51002427 18.1417751,6.01393712 C18.5706337,4.7752581 19.0419068,3.55052491 19.4307553,2.29982361 C19.5030813,2.0673609 19.3488115,1.60868707 19.1560704,1.49288852 C18.9596745,1.37487787 18.5076369,1.45585992 18.3087404,1.62042081 C17.9872167,1.88635353 17.7086846,2.26010202 17.5396995,2.6444301 C16.9803271,3.91686767 16.3793096,5.18440015 15.9756497,6.50896631 C15.2431565,8.9124595 14.3251356,10.6422244 12.6353808,13.1038092 L11.2987924,15.0518987 C12.2030598,11.215735 12.964695,7.34485104 13.7962517,3.49099061 C14.1427817,1.88491086 12.7355023,0.930630771 11.381698,1.25821372 C10.5206146,1.4665357 9.79235326,1.93021079 9.13555234,2.50622203 C7.74452705,3.72633866 6.66800447,5.19190205 5.84000635,6.83895371 C4.72482014,9.05711151 3.89970737,11.3697163 3.70812039,13.8664062 C3.63560203,14.811934 3.77659927,15.7223569 4.42051231,16.4862041 C5.04663239,17.2288922 5.83558216,17.4204792 6.69474201,16.9640174 C7.09878662,16.7494439 7.4950408,16.474278 7.80829319,16.1443868 C8.43325913,15.486047 8.99849841,14.7710583 9.58807077,14.0798256 C9.57575996,14.1404179 9.56450711,14.2162063 9.54459822,14.2896864 C9.21970826,15.4875859 8.90164696,16.6874089 8.57714172,17.8855008 L7.78501807,18.4326585 C7.36596966,18.7992898 6.24174269,19.6467159 5.81442295,20.0039218 C4.16371652,21.3839827 2.56677371,22.8155952 1.40792259,24.6616396 C0.404014547,26.261083 -0.242687663,27.9468945 0.0865303118,29.8865202 C0.416613891,31.8306664 2.06183816,32.7178141 3.8444049,31.8805828 C4.20238016,31.7124634 4.57112737,31.5062573 4.84263843,31.227629 C5.39854842,30.6571 6.00466343,30.0885906 6.38687559,29.4056292 C7.11840697,28.0983752 7.85744025,26.7613058 8.3257319,25.347871 C9.02206207,23.2462812 9.69059673,21.1306494 10.2880557,18.9975131 L10.2856512,19.0097277 L14.1622097,13.7487802 C14.1278741,14.0509721 14.1405696,14.0753052 14.1327792,14.296996 C14.1109468,14.9195575 14.0230399,15.739669 14.0449685,16.3612687 C14.0609341,16.8155183 14.3155178,17.1674343 14.7757305,17.2618813 C15.2113215,17.3514232 15.5773758,17.1481987 15.7795423,16.7620432 C15.9473733,16.4416736 16.0868317,16.0900461 16.1546373,15.7361104 C16.6598614,13.0986156 17.5424887,10.6113512 19.049024,8.37107242 C19.4385457,7.79207966 19.8765412,7.24559514 20.2921272,6.68420299 C20.3582017,6.86088234 20.327617,6.97985477 20.2963591,7.09863485 C19.8894291,8.64450704 19.4352757,10.1800882 19.0937469,11.7402909 C18.9006211,12.6220526 18.8649389,13.5427665 18.8151186,14.4490537 C18.7954983,14.8025086 18.9620789,15.1599068 19.3738178,15.2516608 C19.791135,15.3447613 20.1564198,15.182701 20.371859,14.8308812 C20.577488,14.4952192 20.7409909,14.1215669 20.8552506,13.7440675 C21.7460531,10.8005337 23.1351548,8.1148537 24.9917788,5.66788796 C25.1746135,5.42686539 25.3765877,5.20046191 25.5697136,4.96732596 C25.4656487,5.38560495 25.2882,5.74300313 25.1340263,6.1102115 C24.3223785,8.0433933 23.9225657,10.0215865 24.5070406,12.10144 C24.7519103,12.9724298 25.2008702,13.7261784 25.8979697,14.2998813 C26.1708273,14.5245536 26.5201465,14.6990208 26.8627333,14.7859659 C27.3611287,14.9125364 27.7934497,14.6339082 28.0234118,14.148593 C28.2323108,13.7074236 28.1643128,13.2786612 27.7133333,12.9681018 C26.7397213,12.2976436 26.3133634,11.350673 26.2952819,10.2240416 C26.2851832,9.59195848 26.368762,8.94179385 26.5197618,8.32663809 C27.0193114,6.29237301 28.0809263,4.51826995 29.1848597,2.76696112 C29.4397319,2.3625318 29.6745991,1.9403095 29.868879,1.50414137 C30.0533488,1.08990187 30.0780666,0.646905084 29.712878,0.299701786" id="Page-1" fill="#000000"></path>
                    <path d="M12,23 C18,19 22.6666667,17.3333333 26,18" id="Path-2" stroke="#000000" stroke-width="1.5"></path>
                </g>
            </g>
        </g>
    </g>
</svg>
